!!! OTL: Xiao-Lu (Lane)
!!! YEC: Copyright 2001, Chia-wei Lee
!! For Voice only
!! [Andante]
**kern	**silbe
*clefG2	*LXhinhua
*G:	*ping-ying
*M4/4	*
=2	=2
8dd	Fang/
8dd	Qian/
(8gg	De
16dd	|
16cc)	|
8a	Da\
4.d	Lu\
=3	=3
4.cc	Ai\
16a	Qing-
16cc	Qing-
(8dd	Ni^
8g)	|
(8d	Mo\
8f)	|
=4	=4
1g	Zou^
=5	=5
8dd	Fang/
8dd	Hou\
(8gg	Bian-
16dd	|
16cc)	|
8a	Zou^
4.d	Xia\
=6	=6
4.cc	Ai\
16a	Qing-
16cc	Qing-
8dd	Yi-
8g	Tiau/
(8d	Xiao^
8f)	|
=7	=7
1g;	Lu\
=8	=8
16dd	A-
16gg	|
16aa	|
16gg	|
16aa	|
16gg	|
16ee	|
16dd	|
16cc	|
16a	|
16g	|
16e	|
=9	=9
2.d	|
4r	.
*-	*-
